icon-svg/heb.svg

<svg xmlns="http://www.w3.org/2000/svg" viewBox="0 0 24 24"><path fill="#44739e" d="M17.853 11.346h-.505v.625h.464c.209 0 .445-.129.445-.3a.36.36 0 0 0-.404-.325m-.008 1.129h-.507v.544h.411c.207 0 .4-.105.4-.278a.275.275 0 0 0-.304-.266m.901-3.097H5.253a2.621 2.621 0 0 0 0 5.242H18.75a2.621 2.621 0 0 0 0-5.242Zm-10.417 4.14H7.112l-.039-1.031h-.921L6.135 13.5h-1.26l-.152-2.955h1.485l-.039 1.336h.9l-.056-1.318h1.45Zm1.509-1.049h-.891l-.019-.549h.91Zm4.17-1.073h-2.21v.5h1.588l-.019.587h-1.591v.5h2.158l-.02.547h-3.431l-.135-2.956h3.699Zm1.349 1.091h-.874v-.567h.874Zm3.65-.245a.5.5 0 0 1 .441.564c0 .712-.675.753-1.034.753h-2.4l-.134-2.976h2.792a.87.87 0 0 1 .961.85.755.755 0 0 1-.625.787Zm2.039-2.543a3.23 3.23 0 0 0-2.3-.95H5.253A3.254 3.254 0 0 0 2 12a3.26 3.26 0 0 0 3.252 3.251h13.497a3.253 3.253 0 0 0 2.3-5.552Zm-.241 4.36a2.9 2.9 0 0 1-2.059.853H5.253a2.912 2.912 0 1 1 0-5.824H18.75a2.91 2.91 0 0 1 2.059 4.971Z"/></svg>

<?xml version="1.0" encoding="UTF-8"?>
<svg width="24px" fill="#44739e" height="24px" viewBox="0 0 24 24" version="1.1" xmlns="http://www.w3.org/2000/svg" xmlns:xlink="http://www.w3.org/1999/xlink">
            <path d="m 17.856,11.416 h -0.505 v 0.625 0 c 0,0 0.289,0 0.464,0 0.209,0 0.445,-0.129 0.445,-0.3 a 0.362,0.362 0 0 0 -0.404,-0.325 z m -0.008,1.13 h -0.507 v 0.544 h 0.411 c 0.207,0 0.4,-0.105 0.4,-0.278 A 0.275,0.275 0 0 0 17.848,12.546 Z M 18.75,9.448 H 5.254 a 2.622,2.622 0 0 0 0,5.243 h 13.5 a 2.622,2.622 0 0 0 0,-5.243 z M 8.33,13.589 H 7.113 L 7.074,12.558 H 6.153 L 6.136,13.571 H 4.876 L 4.724,10.615 H 6.209 L 6.17,11.951 h 0.9 L 7.014,10.633 h 1.45 z M 9.84,12.54 H 8.948 L 8.929,11.99 H 9.84 Z m 4.171,-1.074 H 11.8 v 0.5 h 1.588 l -0.019,0.588 h -1.591 v 0.5 h 2.159 l -0.02,0.547 H 10.485 L 10.35,10.644 h 3.7 z m 1.349,1.092 H 14.486 V 11.99 h 0.874 z m 3.651,-0.245 a 0.5,0.5 0 0 1 0.441,0.564 c 0,0.712 -0.675,0.753 -1.035,0.753 h -2.4 v 0 l -0.134,-2.977 h 2.793 a 0.868,0.868 0 0 1 0.961,0.85 0.755,0.755 0 0 1 -0.625,0.788 z M 21.05,9.769 a 3.229,3.229 0 0 0 -2.3,-0.95 H 5.254 A 3.255,3.255 0 0 0 2,12.07 3.259,3.259 0 0 0 5.253,15.322 h 13.5 a 3.254,3.254 0 0 0 2.3,-5.553 z M 20.809,14.13 A 2.9,2.9 0 0 1 18.75,14.983 H 5.254 a 2.913,2.913 0 1 1 0,-5.825 h 13.5 a 2.911,2.911 0 0 1 2.059,4.972 z"/>

</svg>
